X:14
T:Jump About. WR1776.14
B:Wm.Randall CDs 1776
Z:vmp.Steve Mansfield 2015
M:C
L:1/8
W:Foot it all 4 & change places the same back again
W:cross over half figure right and left at top
Q:2/4=75
K:A
aecA dBGE | FdcB AGFE | FGAB c^def | gfe^d e2E2 :|
|: EGBd cAec | dBFB AGFE | cAdB cdef | ecdB A2A,2 :|

